assets/icons/facebook.svg

<svg height="512pt" viewBox="0 0 512 512" width="512pt" xmlns="http://www.w3.org/2000/svg"><path d="m297.277344 508.667969c-2.132813.347656-4.273438.667969-6.421875.960937 2.148437-.292968 4.289062-.613281 6.421875-.960937zm0 0"/><path d="m302.398438 507.792969c-1.019532.1875-2.039063.359375-3.058594.535156 1.019531-.175781 2.039062-.347656 3.058594-.535156zm0 0"/><path d="m285.136719 510.339844c-2.496094.28125-5.007813.53125-7.527344.742187 2.519531-.210937 5.03125-.460937 7.527344-.742187zm0 0"/><path d="m290.054688 509.738281c-1.199219.160157-2.40625.308594-3.609376.449219 1.203126-.140625 2.410157-.289062 3.609376-.449219zm0 0"/><path d="m309.367188 506.410156c-.898438.191406-1.800782.382813-2.703126.566406.902344-.183593 1.804688-.375 2.703126-.566406zm0 0"/><path d="m326.664062 502.113281c-.726562.207031-1.453124.402344-2.179687.605469.726563-.203125 1.453125-.398438 2.179687-.605469zm0 0"/><path d="m321.433594 503.542969c-.789063.207031-1.582032.417969-2.375.617187.792968-.199218 1.585937-.40625 2.375-.617187zm0 0"/><path d="m314.589844 505.253906c-.835938.195313-1.679688.378906-2.523438.566406.84375-.1875 1.6875-.371093 2.523438-.566406zm0 0"/><path d="m277.527344 511.089844c-1.347656.113281-2.695313.214844-4.046875.304687 1.351562-.089843 2.699219-.191406 4.046875-.304687zm0 0"/><path d="m512 256c0-141.363281-114.636719-256-256-256s-256 114.636719-256 256 114.636719 256 256 256c1.503906 0 3-.03125 4.5-.058594v-199.285156h-55v-64.097656h55v-47.167969c0-54.703125 33.394531-84.476563 82.191406-84.476563 23.367188 0 43.453125 1.742188 49.308594 2.519532v57.171875h-33.648438c-26.546874 0-31.6875 12.617187-31.6875 31.128906v40.824219h63.476563l-8.273437 64.097656h-55.203126v189.453125c107.003907-30.675781 185.335938-129.257813 185.335938-246.109375zm0 0"/><path d="m272.914062 511.429688c-2.664062.171874-5.339843.308593-8.023437.398437 2.683594-.089844 5.359375-.226563 8.023437-.398437zm0 0"/><path d="m264.753906 511.835938c-1.414062.046874-2.832031.082031-4.25.105468 1.417969-.023437 2.835938-.058594 4.25-.105468zm0 0"/></svg>

<svg width="512" height="512" viewBox="0 0 512 512" fill="none" xmlns="http://www.w3.org/2000/svg">
<path d="M297.277 508.668C295.145 509.016 293.004 509.336 290.855 509.629C293.004 509.336 295.145 509.016 297.277 508.668Z" fill="#353535"/>
<path d="M302.398 507.793C301.379 507.98 300.359 508.152 299.34 508.328C300.359 508.152 301.379 507.98 302.398 507.793Z" fill="#353535"/>
<path d="M285.137 510.34C282.641 510.621 280.129 510.871 277.609 511.082C280.129 510.871 282.641 510.621 285.137 510.34Z" fill="#353535"/>
<path d="M290.055 509.738C288.855 509.898 287.648 510.047 286.445 510.188C287.648 510.047 288.855 509.898 290.055 509.738Z" fill="#353535"/>
<path d="M309.367 506.41C308.469 506.602 307.566 506.793 306.664 506.977C307.566 506.793 308.469 506.602 309.367 506.41Z" fill="#353535"/>
<path d="M326.664 502.113C325.938 502.32 325.211 502.516 324.484 502.719C325.211 502.516 325.938 502.32 326.664 502.113Z" fill="#353535"/>
<path d="M321.434 503.543C320.645 503.75 319.852 503.961 319.059 504.16C319.852 503.961 320.645 503.754 321.434 503.543Z" fill="#353535"/>
<path d="M314.59 505.254C313.754 505.449 312.91 505.633 312.066 505.82C312.91 505.633 313.754 505.449 314.59 505.254Z" fill="#353535"/>
<path d="M277.527 511.09C276.18 511.203 274.832 511.305 273.48 511.395C274.832 511.305 276.18 511.203 277.527 511.09Z" fill="#353535"/>
<path d="M512 256C512 114.637 397.363 0 256 0C114.637 0 0 114.637 0 256C0 397.363 114.637 512 256 512C257.504 512 259 511.969 260.5 511.941V312.656H205.5V248.559H260.5V201.391C260.5 146.688 293.895 116.914 342.691 116.914C366.059 116.914 386.145 118.656 392 119.434V176.605H358.352C331.805 176.605 326.664 189.223 326.664 207.734V248.559H390.141L381.867 312.656H326.664V502.109C433.668 471.434 512 372.852 512 256Z" fill="#353535"/>
<path d="M272.914 511.43C270.25 511.602 267.574 511.738 264.891 511.828C267.574 511.738 270.25 511.602 272.914 511.43Z" fill="#353535"/>
<path d="M264.754 511.836C263.34 511.883 261.922 511.918 260.504 511.941C261.922 511.918 263.34 511.883 264.754 511.836Z" fill="#353535"/>
</svg>
